X: 125
T:Stone's Rag
M:4/4
L:1/8
Q:160
C:Old Time
S:From Brody's Fakebook
R:Rag
K:C
A2|:"C"cdeg- ga-ge-|ag-eg- ga-g|"F"FGAc- cd-cA|"D"dc-Ac- cd-cA|!
"G"Bd-BG- G^FGA|Bd-BG- G^F-G2|[1"C"cdeg- ga-ge|"G"g6 e2:|[2ge-ga- ag-e2|
